Newaita/actions/32/audio-volume-muted-blocking.svg

<svg height="32" viewBox="0 0 32 32" width="32" xmlns="http://www.w3.org/2000/svg"><g fill="#424242" fill-opacity=".392157"><path d="m14.550781 2.902344c-.011719 0-.023437 0-.035156 0-.378906.011718-.730469.183594-.972656.472656l-6.222657 7.464844h-.042968v10.574218h.042968l6.222657 7.460938c.355469.425781.9375.585938 1.457031.398438.523438-.191407.871094-.683594.871094-1.238282v-23.816406c0-.730469-.59375-1.320312-1.320313-1.316406zm-10.582031 7.9375c-.726562 0-1.316406.589844-1.316406 1.316406v7.9375c0 .730469.589844 1.320312 1.316406 1.320312h1.984375v-10.574218zm0 0"/><path d="m20.074219 11.058594c-.339844 0-.679688.132812-.9375.390625-.519531.519531-.519531 1.351562 0 1.871093l2.808593 2.804688-2.808593 2.808594c-.519531.519531-.519531 1.351562 0 1.871094.519531.519531 1.351562.519531 1.871093 0l2.808594-2.808594 2.804688 2.808594c.519531.519531 1.351562.519531 1.871094 0 .519531-.519532.519531-1.351563 0-1.871094l-2.804688-2.808594 2.804688-2.804688c.519531-.519531.519531-1.351562 0-1.871093-.519532-.519531-1.351563-.519531-1.871094 0l-2.804688 2.804687-2.808594-2.804687c-.257812-.257813-.597656-.390625-.933593-.390625zm0 0"/></g></svg>

<?xml version="1.0" encoding="UTF-8"?>
<svg xmlns="http://www.w3.org/2000/svg" xmlns:xlink="http://www.w3.org/1999/xlink" width="32px" height="32px" viewBox="0 0 32 32" version="1.1">
<g id="surface1">
<path style=" stroke:none;fill-rule:nonzero;fill:rgb(25.882354%,25.882354%,25.882354%);fill-opacity:0.392157;" d="M 14.550781 2.902344 C 14.539062 2.902344 14.527344 2.902344 14.515625 2.902344 C 14.136719 2.914062 13.785156 3.085938 13.542969 3.375 L 7.320312 10.839844 L 7.277344 10.839844 L 7.277344 21.414062 L 7.320312 21.414062 L 13.542969 28.875 C 13.898438 29.300781 14.480469 29.460938 15 29.273438 C 15.523438 29.082031 15.871094 28.589844 15.871094 28.035156 L 15.871094 4.21875 C 15.871094 3.488281 15.277344 2.898438 14.550781 2.902344 Z M 3.96875 10.839844 C 3.242188 10.839844 2.652344 11.429688 2.652344 12.15625 L 2.652344 20.09375 C 2.652344 20.824219 3.242188 21.414062 3.96875 21.414062 L 5.953125 21.414062 L 5.953125 10.839844 Z M 3.96875 10.839844 "/>
<path style=" stroke:none;fill-rule:nonzero;fill:rgb(25.882354%,25.882354%,25.882354%);fill-opacity:0.392157;" d="M 20.074219 11.058594 C 19.734375 11.058594 19.394531 11.191406 19.136719 11.449219 C 18.617188 11.96875 18.617188 12.800781 19.136719 13.320312 L 21.945312 16.125 L 19.136719 18.933594 C 18.617188 19.453125 18.617188 20.285156 19.136719 20.804688 C 19.65625 21.324219 20.488281 21.324219 21.007812 20.804688 L 23.816406 17.996094 L 26.621094 20.804688 C 27.140625 21.324219 27.972656 21.324219 28.492188 20.804688 C 29.011719 20.285156 29.011719 19.453125 28.492188 18.933594 L 25.6875 16.125 L 28.492188 13.320312 C 29.011719 12.800781 29.011719 11.96875 28.492188 11.449219 C 27.972656 10.929688 27.140625 10.929688 26.621094 11.449219 L 23.816406 14.253906 L 21.007812 11.449219 C 20.75 11.191406 20.410156 11.058594 20.074219 11.058594 Z M 20.074219 11.058594 "/>
</g>
</svg>
